X:1
T:Kilkenny Boy's -- Reel
R:reel
N:166 =FF=20
B:Ryan's Mammoth Collection
Z:Contributed by Ray Davies,  ray:davies99.freeserve.co.uk
M:2/4
L:1/16
K:D
vkD3B AFFB | AFFB AFFd | kD3B AFFA | BdAF .E2(EF) |=20
 kD3B AFFB | AFFB AFFd | kD3B AFFA | BdAF E2E2 |]
 fddf ecce | dBBd AFFA | fddf ecce | BdAF E2E2 |=20
 fddf ecce | dBBd AFFA | fdec dcBA | BdAF D2D2 |]
